X:1091
T:Braes of Busbie.
M:C|
L:1/8
Q:1/4=120
Z:Jack Campin * www.campin.me.uk * 2009
K:A Minor
G|E<AA>B c>B```A>G| D>GG>A Bd    c/B/A/G/|   A>Bc>d {cd}e>d```c>e|!d/c/B/A/ GB  cAA::
B|c>dec  gc````ec | Bd`ge  dB````GB      |!  c>dec      gc````ec | d>B``````G>B cAA::
g|a2 ea  ea/b/ c'a|!g2 dg  dg/a/ bg      |   a2 ea      e>d```c>e| d/c/B/A/ GB  cAA::!
B|c<eA<c Ac/d/ ec | B<dG<B GB/c/ cA      |[1 c<eA<c     Ac/d/ ec |!d<B``````G>B cAA:|
                                          [2 c>eg<c'    g<e```ce | d/c/B/A/ GB  cAA|]
<end>
<start>
